docs/images/benchmarks/hap.svg

<svg height="39" viewBox="0 0 119 39" width="119" xmlns="http://www.w3.org/2000/svg"><path d="m145.535605 634h17.619311v-23.3998h-17.619311zm-21.535605 0h17.619311v-39h-17.619311zm109.346557-18.83922h-2.490273v5.51981h2.389059c2.123497 0 4.081644-.627841 4.081644-2.841754 0-2.24785-1.958147-2.678056-3.98043-2.678056zm.330701 10.01551h-2.820974v8.82371h-5.674016v-23.3998h8.628272c5.141889 0 9.18946 1.850583 9.18946 7.205697 0 5.418996-4.412344 7.370393-9.322742 7.370393zm-23.261259-8.328624-2.987327 8.030175h5.906508zm6.30435 17.152334-1.824864-4.59352h-9.091253l-1.725654 4.59352h-6.173072l9.854869-23.3998h5.508665l9.755659 23.3998zm-26.64743 0v-9.781941h-9.158394v9.781941h-5.674016v-23.3998h5.674016v8.857647h9.158394v-8.857647h5.674016v23.3998z" fill="#9b9b9b" fill-rule="evenodd" transform="translate(-124 -595)"/></svg>

<?xml version="1.0" encoding="UTF-8"?>
<svg width="119px" height="39px" viewBox="0 0 119 39" version="1.1" xmlns="http://www.w3.org/2000/svg" xmlns:xlink="http://www.w3.org/1999/xlink">
    <!-- Generator: Sketch 49.3 (51167) - http://www.bohemiancoding.com/sketch -->
    <title>Page 1 Copy 3</title>
    <desc>Created with Sketch.</desc>
    <defs></defs>
    <g id="Page-1" stroke="none" stroke-width="1" fill="none" fill-rule="evenodd">
        <g id="Benchmarks" transform="translate(-124.000000, -595.000000)" fill="#9B9B9B">
            <path d="M145.535605,634 L163.154916,634 L163.154916,610.6002 L145.535605,610.6002 L145.535605,634 Z M124,634 L141.619311,634 L141.619311,595 L124,595 L124,634 Z M233.346557,615.16078 L230.856284,615.16078 L230.856284,620.68059 L233.245343,620.68059 C235.36884,620.68059 237.326987,620.052749 237.326987,617.838836 C237.326987,615.590986 235.36884,615.16078 233.346557,615.16078 Z M233.677258,625.17629 L230.856284,625.17629 L230.856284,634 L225.182268,634 L225.182268,610.6002 L233.81054,610.6002 C238.952429,610.6002 243,612.450783 243,617.805897 C243,623.224893 238.587656,625.17629 233.677258,625.17629 Z M210.415999,616.847666 L207.428672,624.877841 L213.33518,624.877841 L210.415999,616.847666 Z M216.720349,634 L214.895485,629.40648 L205.804232,629.40648 L204.078578,634 L197.905506,634 L207.760375,610.6002 L213.26904,610.6002 L223.024699,634 L216.720349,634 Z M190.072919,634 L190.072919,624.218059 L180.914525,624.218059 L180.914525,634 L175.240509,634 L175.240509,610.6002 L180.914525,610.6002 L180.914525,619.457847 L190.072919,619.457847 L190.072919,610.6002 L195.746935,610.6002 L195.746935,634 L190.072919,634 Z" id="Page-1-Copy-3"></path>
        </g>
    </g>
</svg>
